assets/img/braze_icons/channel-in-browser-messages.svg

<svg fill="none" height="24" viewBox="0 0 24 24" width="24" xmlns="http://www.w3.org/2000/svg"><path clip-rule="evenodd" d="m6.75871 1h10.48259c.805-.000011 1.4693-.000021 2.0105.0442.5621.04592 1.0788.14449 1.5642.39178.7526.38349 1.3645.99541 1.748 1.74806.2473.48534.3459 1.00204.3918 1.56414.0442.54119.0442 1.20554.0442 2.0105v9.48262c0 .805 0 1.4693-.0442 2.0105-.0459.5621-.1445 1.0788-.3918 1.5642-.3835.7526-.9954 1.3645-1.748 1.748-.4854.2473-1.0021.3459-1.5642.3918-.5412.0442-1.2055.0442-2.0105.0442h-10.48263c-.80495 0-1.46931 0-2.0105-.0442-.56209-.0459-1.0788-.1445-1.56413-.3918-.75265-.3835-1.36457-.9954-1.74807-1.748-.24729-.4854-.34585-1.0021-.39178-1.5642-.044213-.5412-.044202-1.2055-.04419-2.0105v-9.4826c-.000012-.80497-.000023-1.46933.04419-2.01053.04593-.56209.14449-1.0788.39179-1.56413.38349-.75265.99541-1.36457 1.74806-1.74807.48533-.24729 1.00204-.34585 1.56414-.39178.54119-.044213 1.20555-.044202 2.01053-.04419zm-1.84767 2.03755c-.43842.03582-.66262.10075-.81902.18044-.37632.19174-.68229.49771-.87403.87403-.07969.1564-.14462.3806-.18044.81902-.03677.45009-.03755 1.03238-.03755 1.88896v9.4c0 .8566.00078 1.4389.03755 1.889.03582.4384.10075.6626.18044.819.19174.3763.49771.6823.87403.874.1564.0797.3806.1446.81902.1804.45009.0368 1.03238.0376 1.88896.0376h10.4c.8566 0 1.4389-.0008 1.889-.0376.4384-.0358.6626-.1007.819-.1804.3763-.1917.6823-.4977.874-.874.0797-.1564.1446-.3806.1805-.819.0367-.4501.0375-1.0324.0375-1.889v-9.4c0-.85658-.0008-1.43887-.0375-1.88896-.0359-.43842-.1008-.66262-.1805-.81902-.1917-.37632-.4977-.68228-.874-.87403-.1564-.07969-.3806-.14462-.819-.18044-.4501-.03677-1.0324-.03755-1.889-.03755h-10.4c-.85658 0-1.43887.00078-1.88896.03755zm2.65706 1.96245h.0319 8.8319c.2524-.00003.4982-.00006.7063.01695.2286.01867.4984.06274.7698.20104.3763.19175.6823.49771.874.87403.1383.27142.1824.54116.2011.76975.017.20816.0169.45394.0169.70632v7.86381c0 .2524.0001.4982-.0169.7063-.0187.2286-.0628.4984-.2011.7698-.1917.3763-.4977.6823-.874.874-.2714.1383-.5412.1824-.7698.2011-.2081.017-.4539.0169-.7063.0169h-8.86382c-.25237 0-.49816.0001-.70631-.0169-.22859-.0187-.49833-.0628-.76975-.2011-.37633-.1917-.68229-.4977-.87403-.874-.1383-.2714-.18237-.5412-.20104-.7698-.01701-.2081-.01698-.4539-.01695-.7063v-7.8319-.0319c-.00003-.25238-.00006-.49817.01695-.70633.01867-.22859.06274-.49833.20104-.76975.19174-.37632.49771-.68229.87403-.87403.27142-.1383.54116-.18237.76975-.20104.20816-.01701.45395-.01698.70633-.01695zm6.4319 5c0 .5523-.4477 1-1 1s-1-.4477-1-1c0-.55228.4477-1 1-1s1 .44772 1 1zm1.0148 4h-6.47605c-.72365 0-1.20771-.7449-.91381-1.4061l.94438-2.1249c.30089-.67698 1.20776-.80316 1.68208-.234l1.6391 1.967c.3631.4357 1.0156.4825 1.4372.1031l.6324-.5692c.4384-.3946 1.1214-.3259 1.4725.1481l.3857.5208c.4889.6599.0178 1.5952-.8035 1.5952z" fill="#801ed7" fill-rule="evenodd"/></svg>

<svg width="24" height="24" viewBox="0 0 24 24" fill="none" xmlns="http://www.w3.org/2000/svg">
<path fill-rule="evenodd" clip-rule="evenodd" d="M6.75871 1L17.2413 1C18.0463 0.999989 18.7106 0.999979 19.2518 1.0442C19.8139 1.09012 20.3306 1.18869 20.816 1.43598C21.5686 1.81947 22.1805 2.43139 22.564 3.18404C22.8113 3.66938 22.9099 4.18608 22.9558 4.74818C23 5.28937 23 5.95372 23 6.75868V16.2413C23 17.0463 23 17.7106 22.9558 18.2518C22.9099 18.8139 22.8113 19.3306 22.564 19.816C22.1805 20.5686 21.5686 21.1805 20.816 21.564C20.3306 21.8113 19.8139 21.9099 19.2518 21.9558C18.7106 22 18.0463 22 17.2413 22L6.75867 22C5.95372 22 5.28936 22 4.74817 21.9558C4.18608 21.9099 3.66937 21.8113 3.18404 21.564C2.43139 21.1805 1.81947 20.5686 1.43597 19.816C1.18868 19.3306 1.09012 18.8139 1.04419 18.2518C0.999977 17.7106 0.999988 17.0463 1 16.2413L1 6.7587C0.999988 5.95373 0.999977 5.28937 1.04419 4.74817C1.09012 4.18608 1.18868 3.66937 1.43598 3.18404C1.81947 2.43139 2.43139 1.81947 3.18404 1.43597C3.66937 1.18868 4.18608 1.09012 4.74818 1.04419C5.28937 0.999977 5.95373 0.999988 6.75871 1ZM4.91104 3.03755C4.47262 3.07337 4.24842 3.1383 4.09202 3.21799C3.7157 3.40973 3.40973 3.7157 3.21799 4.09202C3.1383 4.24842 3.07337 4.47262 3.03755 4.91104C3.00078 5.36113 3 5.94342 3 6.8V16.2C3 17.0566 3.00078 17.6389 3.03755 18.089C3.07337 18.5274 3.1383 18.7516 3.21799 18.908C3.40973 19.2843 3.7157 19.5903 4.09202 19.782C4.24842 19.8617 4.47262 19.9266 4.91104 19.9624C5.36113 19.9992 5.94342 20 6.8 20L17.2 20C18.0566 20 18.6389 19.9992 19.089 19.9624C19.5274 19.9266 19.7516 19.8617 19.908 19.782C20.2843 19.5903 20.5903 19.2843 20.782 18.908C20.8617 18.7516 20.9266 18.5274 20.9625 18.089C20.9992 17.6389 21 17.0566 21 16.2V6.8C21 5.94342 20.9992 5.36113 20.9625 4.91104C20.9266 4.47262 20.8617 4.24842 20.782 4.09202C20.5903 3.7157 20.2843 3.40974 19.908 3.21799C19.7516 3.1383 19.5274 3.07337 19.089 3.03755C18.6389 3.00078 18.0566 3 17.2 3L6.8 3C5.94342 3 5.36113 3.00078 4.91104 3.03755ZM7.5681 5L7.6 5L16.4319 5C16.6843 4.99997 16.9301 4.99994 17.1382 5.01695C17.3668 5.03562 17.6366 5.07969 17.908 5.21799C18.2843 5.40974 18.5903 5.7157 18.782 6.09202C18.9203 6.36344 18.9644 6.63318 18.9831 6.86177C19.0001 7.06993 19 7.31571 19 7.56809V15.4319C19 15.6843 19.0001 15.9301 18.9831 16.1382C18.9644 16.3668 18.9203 16.6366 18.782 16.908C18.5903 17.2843 18.2843 17.5903 17.908 17.782C17.6366 17.9203 17.3668 17.9644 17.1382 17.9831C16.9301 18.0001 16.6843 18 16.4319 18L7.56808 18C7.31571 18 7.06992 18.0001 6.86177 17.9831C6.63318 17.9644 6.36344 17.9203 6.09202 17.782C5.71569 17.5903 5.40973 17.2843 5.21799 16.908C5.07969 16.6366 5.03562 16.3668 5.01695 16.1382C4.99994 15.9301 4.99997 15.6843 5 15.4319L5 7.6L5 7.5681C4.99997 7.31572 4.99994 7.06993 5.01695 6.86177C5.03562 6.63318 5.07969 6.36344 5.21799 6.09202C5.40973 5.7157 5.7157 5.40973 6.09202 5.21799C6.36344 5.07969 6.63318 5.03562 6.86177 5.01695C7.06993 4.99994 7.31572 4.99997 7.5681 5ZM14 10C14 10.5523 13.5523 11 13 11C12.4477 11 12 10.5523 12 10C12 9.44772 12.4477 9 13 9C13.5523 9 14 9.44772 14 10ZM15.0148 14H8.53875C7.8151 14 7.33104 13.2551 7.62494 12.5939L8.56932 10.469C8.87021 9.79202 9.77708 9.66584 10.2514 10.235L11.8905 12.202C12.2536 12.6377 12.9061 12.6845 13.3277 12.3051L13.9601 11.7359C14.3985 11.3413 15.0815 11.41 15.4326 11.884L15.8183 12.4048C16.3072 13.0647 15.8361 14 15.0148 14Z" fill="#801ED7"/>
</svg>
